X:101
T:Queen of the Fair, The
R:jig
C:John McFadden (c 1847 - c 1913)
D:Stockton's Wing
Z:id:hn-jig-101
M:6/8
K:D
~F3 DA,A,|DFA dAF|~G3 FGA|BAG FGE|
~F3 DA,A,|DFA dAF|~G3 EAG|1 FDD D2E:|2 FDD D2g||
|:fdf ece|dAG FEF|~D3 dAF|GFG E2g|
fdf ece|dAG FED|EFG BAG|1 FDD D2g:|2 FDD D3||
|:Add fdd|add fdd|Ace ~g3|~f3 ecA|
[1 Add fdd|add fdd|EFG BAG|FDD D3:|
[2 ~a3 geg|fdf ecA|EFG BAG|FGE D2E||
P:Variations:
|:FA,A, EA,A,|DFA dAF|~G3 FGA|BGE ~E3|
FEF DA,D|DFA dAF|GFG BAG|1 FDD D2E:|2 FDD D2g||
|:fdf ecA|B/c/dB AFD|DFA dAF|~G3 E2g|
fdf ecA|B/c/dB AFD|EFG BAG|1 FDD D2g:|2 FDD D3||
|:Add fdd|add fda|Ace ~g3|fdf ecA|
[1 Add fdd|add fda|EFG BAG|FDD D3:|
[2 ~a3 geg|fdf ecA|EFG BAG|FGE D2E||

